public/images/logo-white.svg

<?xml version="1.0" encoding="UTF-8" standalone="no"?>
<svg width="293px" height="41px" viewBox="0 0 293 41" version="1.1" xmlns="http://www.w3.org/2000/svg" xmlns:xlink="http://www.w3.org/1999/xlink">
    <!-- Generator: Sketch 3.7.1 (28215) - http://www.bohemiancoding.com/sketch -->
    <title>rgb</title>
    <desc>Created with Sketch.</desc>
    <defs></defs>
    <g id="Page-1" stroke="none" stroke-width="1" fill="none" fill-rule="evenodd">
        <g id="rgb">
            <g id="Layer_1">
                <rect id="Rectangle-path" fill="#FFFFFF" x="8.39" y="7.52" width="17.2" height="22.06"></rect>
                <polygon id="Shape" fill="#FFFFFF" points="54.4 5.92 48.24 5.92 48.24 33.23 66.11 33.23 66.11 27.84 54.4 27.84"></polygon>
                <path d="M85.16,5.72 C76.81,5.72 70.49,11.61 70.49,19.57 C70.49,27.53 76.81,33.5 85.16,33.5 C93.51,33.5 99.83,27.5 99.83,19.57 C99.83,11.64 93.51,5.72 85.16,5.72 L85.16,5.72 Z M85.24,28.11 C80.5549834,28.0769715 76.7822915,24.2550511 76.81,19.57 C76.7912753,17.3248681 77.672128,15.1656799 79.2559691,13.5743235 C80.8398103,11.9829671 82.9948046,11.0919033 85.24,11.1 C89.939943,11.1000003 93.7499995,14.910057 93.7499995,19.61 C93.7499995,24.309943 89.939943,28.1199997 85.24,28.12 L85.24,28.11 Z" id="Shape" fill="#FFFFFF"></path>
                <path d="M120.59,11.07 C123.368341,11.1262505 126.031032,12.1927486 128.08,14.07 L131.55,9.66 C128.463278,7.08245313 124.571387,5.66722005 120.55,5.66 C112.04,5.66 105.65,11.66 105.65,19.51 C105.65,27.36 112,33.5 120.24,33.5 C124.196319,33.4431125 128.048914,32.2261376 131.32,30 L131.32,18.21 L121.21,18.21 L121.21,23 L126,23 L126,26.6 C124.354171,27.4891869 122.528743,27.9951108 120.66,28.08 C117.501973,28.2802349 114.493114,26.7137383 112.846026,24.0118262 C111.198938,21.3099142 111.184978,17.917724 112.809773,15.2023474 C114.434567,12.4869708 117.430432,10.8957634 120.59,11.07 L120.59,11.07 Z" id="Shape" fill="#FFFFFF"></path>
                <rect id="Rectangle-path" fill="#FFFFFF" x="140.21" y="5.92" width="6.17" height="27.31"></rect>
                <polygon id="Shape" fill="#FFFFFF" points="174.74 23.47 161.47 5.92 155.85 5.92 155.85 33.23 161.75 33.23 161.75 15.71 174.97 33.23 180.59 33.23 180.59 5.92 174.74 5.92"></polygon>
                <path d="M192.21,26.33 C191.266864,26.3065345 190.35661,26.6771523 189.698101,27.3527414 C189.039591,28.0283305 188.692398,28.9477742 188.74,29.89 C188.74,31.1297117 189.401378,32.2752526 190.475,32.8951085 C191.548622,33.5149644 192.871378,33.5149644 193.945,32.8951085 C195.018622,32.2752526 195.68,31.1297117 195.68,29.89 C195.736898,28.9453152 195.392758,28.0204397 194.732176,27.3427244 C194.071594,26.665009 193.155832,26.2973048 192.21,26.33 L192.21,26.33 Z" id="Shape" fill="#FFFFFF"></path>
                <path d="M215.36,11.07 C218.138341,11.1262505 220.801032,12.1927486 222.85,14.07 L226.32,9.66 C223.233278,7.08245313 219.341387,5.66722005 215.32,5.66 C206.81,5.66 200.42,11.66 200.42,19.51 C200.42,27.36 206.74,33.5 215,33.5 C218.959737,33.4450648 222.816082,32.2280036 226.09,30 L226.09,18.21 L216,18.21 L216,23 L220.77,23 L220.77,26.6 C219.124171,27.4891869 217.298743,27.9951108 215.43,28.08 C212.271973,28.2802349 209.263114,26.7137383 207.616026,24.0118262 C205.968938,21.3099142 205.954978,17.917724 207.579773,15.2023474 C209.204567,12.4869708 212.200432,10.8957634 215.36,11.07 L215.36,11.07 Z" id="Shape" fill="#FFFFFF"></path>
                <path d="M247.59,5.72 C239.24,5.72 232.92,11.61 232.92,19.57 C232.92,27.53 239.24,33.5 247.59,33.5 C255.94,33.5 262.26,27.5 262.26,19.57 C262.26,11.64 255.94,5.72 247.59,5.72 L247.59,5.72 Z M247.67,28.11 C242.984983,28.0769715 239.212292,24.2550511 239.24,19.57 C239.221275,17.3248681 240.102128,15.1656799 241.685969,13.5743235 C243.26981,11.9829671 245.424805,11.0919033 247.67,11.1 C252.369943,11.1000003 256.179999,14.910057 256.179999,19.61 C256.179999,24.309943 252.369943,28.1199997 247.67,28.12 L247.67,28.11 Z" id="Shape" fill="#FFFFFF"></path>
                <polygon id="Shape" fill="#FFFFFF" points="286.69 5.92 279.2 26.52 271.75 5.92 265.12 5.92 275.85 33.23 282.21 33.23 293.05 5.92"></polygon>
                <path d="M12.33,26 L13.78,17.72 C12.2933959,16.5679951 11.7057535,14.5970193 12.3187809,12.8190135 C12.9318083,11.0410078 14.6093016,9.85101384 16.49,9.86 L16.49,0.67 L5.29,0.67 C4.13896043,0.67 3.03506445,1.12724869 2.22115657,1.94115657 C1.40724869,2.75506445 0.95,3.85896043 0.95,5.01 L0.95,26.29 C0.946641375,26.6914806 1.03559765,27.0883624 1.21,27.45 C2.15,29.35 5.86,35.45 16.48,40.14 L16.48,26.34 C15.0894867,26.3456136 13.7010574,26.2318628 12.33,26 L12.33,26 Z" id="Shape" fill="#E21D3E"></path>
                <path d="M27.66,0.64 L16.48,0.64 L16.48,9.83 L16.48,9.83 C18.3520786,9.82031421 20.0243225,10.9988953 20.6446816,12.7652268 C21.2650407,14.5315582 20.6970038,16.4969557 19.23,17.66 L20.68,25.98 C19.2930776,26.2214841 17.8877871,26.3419376 16.48,26.34 L16.48,40.12 C27.09,35.45 30.81,29.33 31.75,27.43 C31.9244023,27.0683624 32.0133586,26.6714806 32.01,26.27 L32.01,5 C32.0153314,3.84376397 31.5590627,2.73319949 30.7424109,1.91467032 C29.9257591,1.09614115 28.8162452,0.637323542 27.66,0.64 L27.66,0.64 Z" id="Shape" fill="#B51E23"></path>
            </g>
        </g>
    </g>
</svg>

<svg width="293" height="41" xmlns="http://www.w3.org/2000/svg"><g fill="none" fill-rule="evenodd"><path fill="#FFF" d="M8.39 7.52h17.2v22.06H8.39zm46.01-1.6h-6.16v27.31h17.87v-5.39H54.4zm30.76-.2c-8.35 0-14.67 5.89-14.67 13.85S76.81 33.5 85.16 33.5s14.67-6 14.67-13.93S93.51 5.72 85.16 5.72zm.08 22.39a8.49 8.49 0 01-8.43-8.54 8.4 8.4 0 018.43-8.47 8.51 8.51 0 010 17.02v-.01zm35.35-17.04a11.43 11.43 0 017.49 3l3.47-4.41a17.21 17.21 0 00-11-4c-8.51 0-14.9 6-14.9 13.85S112 33.5 120.24 33.5a20.21 20.21 0 0011.08-3.5V18.21h-10.11V23H126v3.6a12.42 12.42 0 01-5.34 1.48 8.52 8.52 0 11-.07-17.01zm19.62-5.15h6.17v27.31h-6.17zm34.53 17.55L161.47 5.92h-5.62v27.31h5.9V15.71l13.22 17.52h5.62V5.92h-5.85zm17.47 2.86a3.39 3.39 0 00-3.47 3.56 3.47 3.47 0 106.94 0 3.36 3.36 0 00-3.47-3.56zm23.15-15.26a11.43 11.43 0 017.49 3l3.47-4.41a17.21 17.21 0 00-11-4c-8.51 0-14.9 6-14.9 13.85S206.74 33.5 215 33.5a20.21 20.21 0 0011.09-3.5V18.21H216V23h4.77v3.6a12.42 12.42 0 01-5.34 1.48 8.52 8.52 0 11-.07-17.01zm32.23-5.35c-8.35 0-14.67 5.89-14.67 13.85s6.32 13.93 14.67 13.93 14.67-6 14.67-13.93-6.32-13.85-14.67-13.85zm.08 22.39a8.49 8.49 0 01-8.43-8.54 8.4 8.4 0 018.43-8.47 8.51 8.51 0 010 17.02v-.01zm39.02-22.19l-7.49 20.6-7.45-20.6h-6.63l10.73 27.31h6.36l10.84-27.31z"/><path d="M12.33 26l1.45-8.28a4.39 4.39 0 012.71-7.86V.67H5.29A4.34 4.34 0 00.95 5.01v21.28a2.62 2.62 0 00.26 1.16c.94 1.9 4.65 8 15.27 12.69v-13.8a24.3 24.3 0 01-4.15-.34z" fill="#E21D3E"/><path d="M27.66.64H16.48v9.19a4.39 4.39 0 012.75 7.83l1.45 8.32a24.29 24.29 0 01-4.2.36v13.78c10.61-4.67 14.33-10.79 15.27-12.69a2.62 2.62 0 00.26-1.16V5A4.34 4.34 0 0027.66.64z" fill="#B51E23"/></g></svg>
